!!!!SEGMENT: pl-kk--kk-i-389--006-002_anonim--missa-no-6-kyrie.krn
!!!cenid: 17xx:2492
!!!COM: Anonim
!!!COM-rismID: pe30004985
!!!CDT:
!!!CNT:
!!!OPR: [Missa] No. 6.
!!!OTL: Kyrie
!!!OMV: 002
!!!PDT:
!!!AGN: Sacred; Mass
!!!YEC: Copyright 2022 Narodowy Instytut Fryderyka Chopina (https://polishscores.org)
!!!YEM: License CC-BY-4.0 (https://creativecommons.org/licenses/by/4.0)
!!!SMS-siglum: PL-Kk
!!!SMS-shelfmark: Kk.I.389
!!!SMS-variant:
!!!SMS-altvar:
!!!SMS-shelfwork: 006-002 M
!!!NIFC-rismSourceID: 1001146182
!!!NIFC-rismChildID: 1001147228
!!!NIFC-islandoraID: pl-kk:6976
!!!URL-pdf-islandora: https://repozytorium.nifc.pl/islandora/object/pl-kk%3A6976/datastream/PDF/view
!!!URL-scan: https://polish.musicsources.pl/pl/lokalizacje/galeria/rekopisy/5999/1 @EN{Scan on Polish Music Sources Website} @PL{Skany w portalu Dziedzictwo Muzyki Polskiej w otwartym dostępie}
!!!IIIF:
!!!ONB-nifc: UWAGA: S – skan 10-12, A – 29-31 , T – 48-49 , B – 67-69 . Części Mszy: Rorate, Kyrie, Gloria, Graduale, Sanctus, Benedictus, Agnus, Dona.
!!!AIN: 1 alto 1 bass 1 soprn 1 tenor
!!!key: d
**kern	**text	**kern	**text	**kern	**text	**kern	**text
*part4	*part4	*part3	*part3	*part2	*part2	*part1	*part1
*staff4	*staff4	*staff3	*staff3	*staff2	*staff2	*staff1	*staff1
*I"Basso.	*	*I"Tenore.	*	*I"Alto.	*	*I"Soprano.	*
*I'B	*	*I'T	*	*I'A	*	*I'S	*
*ICvox	*	*ICvox	*	*ICvox	*	*ICvox	*
*Ibass	*	*Itenor	*	*Ialto	*	*Isoprn	*
*clefF4	*	*clefC4	*	*clefC3	*	*clefC1	*
*k[b-]	*	*k[b-]	*	*k[b-]	*	*k[b-]	*
*d:	*	*d:	*	*d:	*	*d:	*
*M2/2	*	*M2/2	*	*M2/2	*	*M2/2	*
*met(C.|)	*	*met(C.|)	*	*met(C.|)	*	*met(C.|)	*
=1	=1	=1	=1	=1	=1	=1	=1
!!LO:TX:t=P:problem: all\right	!	!	!	!	!	!	!
!	!	!	!	!LO:TX:a:t=2	!	!	!
4.D\	Ky-	4.A\	Ky-	0r	.	4.dd\	Ky-
8E\	-ri-	8c#X\	-ri-	.	.	8a\	-ri-
8G\L	-e	4d\	-e	.	.	4a\	-e
8F\J	.	.	.	.	.	.	.
8E\L	e-	8c#\L	e-	.	.	4a\	e-
8D\J	.	8d\J	.	.	.	.	.
=2	=2	=2	=2	=2	=2	=2	=2
*2\right	*	*2\right	*	*	*	*	*
2A\	-lei-	2d\	-lei-	.	.	2f/	-lei-
2AA/	-son,	2c#X\	-son,	.	.	2e/	-son
=3	=3	=3	=3	=3	=3	=3	=3
!LO:TX:a:t=2	!	!	!	!	!	!	!
0r	.	4A\	Ky-	4e\	Ky-	4cc#X\	Ky-
.	.	4A\	-ri-	4f\	-ri-	4dd\	-ri-
.	.	4A\	-e	8a\L	-e	8ff\L	-e
.	.	.	.	8g\J	.	8ee\J	.
.	.	4A\	e-	8f\L	e-	8dd\L	e-
.	.	.	.	8e\J	.	8cc#\J	.
=4	=4	=4	=4	=4	=4	=4	=4
.	.	4A\	-lei-	4.f\	-le-	4.dd\	-lei-
.	.	4c#X\	.	.	.	.	.
.	.	.	.	8g\	-i-	8ee\	.
*	*	*	*	*2\right	*	*2\right	*
.	.	2d\	-son	2a\	-son	2ff\	-son,
=5	=5	=5	=5	=5	=5	=5	=5
4.D\	Ky-	4.d\	Ky-	4.a\	Ky-	4.ff\	Ky-
8E\	-ri-	8c#X\	-ri-	8g\	-ri-	8ee\	-ri-
4F\	-e	4A\	-e	8f\L	-e	8dd\L	-e
.	.	.	.	8a\J	.	8ff\	.
4G\	e-	4B-\	e-	8g\L	e-	8ee\	.
.	.	.	.	8f\J	.	8dd\J	e-
!	!	!	!	!	!	!LO:LB:g=original	!
=6	=6	=6	=6	=6	=6	=6	=6
2A\	-lei-	2A\	-lei-	2f\	-lei-	2dd\	-lei-
2AA/	-son,	2A\	-son	2e\	-son,	2cc#X\	-son,
!	!	!LO:LB:g=original	!	!	!	!	!
=7	=7	=7	=7	=7	=7	=7	=7
4F\	Chri-	4A\	Chri-	2c\	Chri-	4ff\	Chri-
4G\	.	4B-X\	.	.	.	4ee\	.
8B-\L	-ste	4c\	-ste	4f\	-ste	4ccn\	-ste
8A\J	.	.	.	.	.	.	.
8G\L	e-	4f\	e-	4f\	e-	4cc\	e-
8F\J	.	.	.	.	.	.	.
!	!	!	!	!LO:LB:g=original	!	!	!
=8	=8	=8	=8	=8	=8	=8	=8
2c\	-lei-	2f\	-lei-	2a\	-lei-	2cc\	-lei-
2C/	-son	2e\	-son	2g\	-son	2cc\	-son
!LO:LB:g=original	!	!	!	!	!	!	!
=9	=9	=9	=9	=9	=9	=9	=9
!LO:TX:a:t=2	!	!	!	!	!	!	!
0r	.	2c\	Chri-	4e\	Chri-	4g\	Chri-
.	.	.	.	4f\	.	4a\	.
.	.	4c\	-ste	8a\L	-ste	8cc\L	-ste
.	.	.	.	8g\J	.	8b-X\	.
.	.	4c\	e-	8f\L	e-	8a\	e-
.	.	.	.	8e\J	.	8g\J	.
=10	=10	=10	=10	=10	=10	=10	=10
.	.	8c\L	-le-	4f\	-lei-	4a\	-lei-
.	.	8B-\	.	.	.	.	.
.	.	8A\	.	4g\	.	4b-\	.
.	.	8G\J	-i-	.	.	.	.
.	.	2F/	-son,	2a\	-son	2cc\	-son
=11	=11	=11	=11	=11	=11	=11	=11
4F\	Chri-	(4A\	Chri-	4a\	Chri-	4cc\	Chri-
4G\	.	4B-\)	.	4g\	.	4b-\	.
4A\	-ste	4c\	-ste	4f\	-ste	4a\	-ste
4B-\	e-	4c\	e-	4g\	e-	4b-\	e-
=12	=12	=12	=12	=12	=12	=12	=12
2c\	-lei-	2c\	-lei-	2f\	-lei-	2a\	-lei-
2C/	-son	2c\	-son,	2e\	-son,	2g\	-son
!	!	!	!	!	!	!LO:PB:g=original	!
=13	=13	=13	=13	=13	=13	=13	=13
4.C#X/	Ky-	4.G/	Ky-	4.e\	Ky-	2.b-\	Ky-
8C#/	-ri-	8G/	-ri-	8e\	-ri-	.	.
2C#/	-e	2G/	-e	2e\	-e	.	.
.	.	.	.	.	.	4b-\	-ri-
=14	=14	=14	=14	=14	=14	=14	=14
4D\	e-	4A/	e-	4f\	e-	4dd\	-e
4E\	.	4G/	.	4g\	.	4cc#X\	.
4F\	.	4F/	.	4a\	.	2dd\	e-
4D\	.	4A/	.	4f\	-e-	.	.
!	!	!LO:LB:g=original	!	!LO:LB:g=original	!	!	!
=15	=15	=15	=15	=15	=15	=15	=15
4G\	-le-	2B-\	-lei-	2g\	-lei-	2ee\	-le-
4E\	.	.	.	.	.	.	.
4A\	.	2A\	-son	2e\	.	2cc#X\	-i-
4AA/	-i-	.	.	.	.	.	.
=16	=16	=16	=16	=16	=16	=16	=16
2BB-/	-son	2B-\	Ky-	2f\	-son	2dd\	-son
2r	.	2r	.	2r	.	2r	.
=17	=17	=17	=17	=17	=17	=17	=17
4.B-\	Ky-	4.B-\	-ri-	4.g\	Ky-	4.dd\	Ky-
8A\	-ri-	8B-\	-e	8g\	-ri-	8dd\	-ri-
4G\	-e	4B-\	e-	4g\	-e	4cc#X\	-e
4F\	e-	4A\	-lei-	4f\	e-	4dd\	e-
!LO:LB:g=original	!	!	!	!	!	!	!
=18	=18	=18	=18	=18	=18	=18	=18
4E\	-lei-	2A\	-son,	4g\	-lei-	4cc#X\	-lei-
4C#X\	.	.	.	4e\	.	4a\	.
2D\	-son,	2A\	Ky-	2f\	-son	2a\	-son
=19	=19	=19	=19	=19	=19	=19	=19
4.AA/	Ky-	4.G/	-ri-	4.e\	Ky-	4.cc#X\	Ky-
8A\	-ri-	8G/	-e	8e\	-ri-	8cc#\	-ri-
2A\	-e	2G/	e-	2e\	-e	2cc#\	-e
!	!	!	!	!	!	!LO:LB:g=original	!
=20	=20	=20	=20	=20	=20	=20	=20
4d\	Ky-	2F/	.	1f	e-	1dd	e-
4B-\	-ri-	.	.	.	.	.	.
4A\	-e	4A/	.	.	.	.	.
4G#X\	e-	4F/	.	.	.	.	.
=21	=21	=21	=21	=21	=21	=21	=21
!LO:SIC:v:o=4A\	!	!	!	!	!	!	!
4G	-le-	2B-\	-lei-	2g\	-lei-	2ee\	-lei-
4E\	.	.	.	.	.	.	.
4A\	.	2A\	.	2e\	.	2cc#X\	.
4AA/	-i-	.	.	.	.	.	.
=22	=22	=22	=22	=22	=22	=22	=22
2D\	-son.	1A	-son.	1f#X	-son.	1dd	-son.
2r	.	.	.	.	.	.	.
==	==	==	==	==	==	==	==
*-	*-	*-	*-	*-	*-	*-	*-
!!!system-decoration: [(s1,s2,s3,s4)]
!!!ENC: Anastazja Marusiak
!!!END: 2023-11-08
!!!EED: Jan Barakat
!!!EEV: 2023-12-02
!!!YEM: Copyright © 2023 by [Copyright Holder]
